X:1
T:Neily Cleere's
R:polka
M:2/4
L:1/8
K:Dmix
FG|:A2 A>B|cA FG|AB cA|G2 FG|
|A2 A>B|cA f2|ed AF|1 G2 FG:|2 G2 fg|]
|:a>g fa|ge ef/g/|ag fa|g2 fg|
|a>g fa|ge ef|ed AF|1 G2 fg:|2 G2 FG|]